X:1
T:Title
%%score { ( 1 4 ) | ( 2 3 ) }
L:1/8
M:4/4
K:F
V:1 treble nm="Grand Piano"
V:4 treble 
V:2 bass 
V:3 bass 
V:1
 z4 z2[Q:1/4=100] AB | c3 d c2 AF | F2 E2 E2 [EG][FA] | [GB]2 [GB]2 [GB][Bd][Ac]B |[M:3/4] A6 | %5
[M:1/4] A[GB] |[M:4/4] [Ac]3 [Bd] [Ac]2 [FA][CF] |[M:9/8] [DG]2 [DA]- [DA] [DB]2- [DB][CDA][B,DG] | %8
[M:4/4] z4 z2 E2 |[M:3/4] [A,F]6 |[M:1/4] [CFA]2 |[M:4/4] [^CGA]3 [CGA] [DFA]2 D-[B,DG] | %12
 [A,DF]2[K:bass] [G,^CE]2 [F,D]2[K:treble] [A,DF][A,DF] | [DFB]4 [CEB]4 | [CFA]6 z2 | %15
 [Ac]2 [Ac][Ac] [Ac]2 [Bd]2 | z2 [GB]4 z2 | [GB]2 [GB][GB] [GB]2 [Ec]2 |[M:3/4] z2 [FA]4 | %19
[M:1/4] CC |[M:4/4] D2 E2 F2 [CEG]2 |[M:17/16] A-<Ac/-c/-c/-c/-c-<cf3/2d | %22
[M:4/4] .[Ac]2 [FA]2 F2 G2[Q:1/4=99][Q:1/4=97][Q:1/4=96][Q:1/4=94][Q:1/4=93][Q:1/4=91][Q:1/4=90][Q:1/4=88][Q:1/4=87][Q:1/4=85][Q:1/4=84][Q:1/4=82][Q:1/4=81][Q:1/4=79][Q:1/4=78][Q:1/4=76] | %23
[M:3/4] F6 |] %24
V:2
 z4 z2 [F,CF][F,G,F] | [F,A,F]3 [F,B,F] [F,A,F]2 [F,CF][F,A,C] | %2
 [G,B,C]2 [G,B,C]2 [G,B,C]2 [C,C][C,C] | [C,C]2 [C,C]2 [C,C]2 z[K:treble] G |[M:3/4] [F,CF]6 | %5
[M:1/4][K:bass] [F,CF][F,C] |[M:4/4] [F,F]3 [F,F] [F,F]2 [F,C][F,A,] | %7
[M:9/8] [B,,B,]2 [A,,^F,]- [A,,F,] [G,,G,]2- [G,,G,]A,,B,, |[M:4/4] C,2 C,2 z D z B, |[M:3/4] F,6 | %10
[M:1/4] F,2 |[M:4/4] E,3 F, D,2 D,G,, | A,,2 A,,2 D,2 D,D, | B,,4 C,4 | F,6 CC | %15
 F,,2 [F,A,C]2 [F,A,C]2 [F,A,C]2 | C,,2 [E,G,C]2 [E,G,]2 [E,G,]2 | %17
 C,,2 [E,G,C]2 [E,G,C]2 [E,G,C]2 |[M:3/4] F,,2 F,2 F,2 |[M:1/4] C,C, |[M:4/4] D,2 E,2 F,2 C,2 | %21
[M:17/16][K:treble] [F,CF]-<[F,CF][A,CF]/-[A,CF]/-[A,CF]/-[A,CF]/-[A,CF]-<[A,CF][B,DF]3/2[B,FB] | %22
[M:4/4] [CF]2[K:bass] [C,C]2 [A,C]2 [B,E]2 |[M:3/4] [F,A,]6 |] %24
V:3
 x8 | x8 | x8 | z4 z2 [C,C]2[K:treble] |[M:3/4] x6 |[M:1/4][K:bass] x2 |[M:4/4] x8 |[M:9/8] x9 | %8
[M:4/4] z4 C,2 C,2 |[M:3/4] x6 |[M:1/4] x2 |[M:4/4] x8 | x8 | x8 | x8 | x8 | x8 | x8 |[M:3/4] x6 | %19
[M:1/4] x2 |[M:4/4] x8 |[M:17/16][K:treble] x17/2 |[M:4/4] z4[K:bass] C,4 |[M:3/4] x6 |] %24
V:4
 x8 | x8 | x8 | x8 |[M:3/4] x6 |[M:1/4] x2 |[M:4/4] x8 |[M:9/8] x9 | %8
[M:4/4] [A,CF]2 [A,CF]2 [G,CE][EB][CA]G |[M:3/4] x6 |[M:1/4] x2 |[M:4/4] z4 z2 .[A,F]2 | %12
 x2[K:bass] x4[K:treble] x2 | x8 | x8 | x8 | [GB]2 z2 C2 CC | x8 |[M:3/4] [FA]2 [A,C]2 [A,C]2 | %19
[M:1/4] x2 |[M:4/4] x8 |[M:17/16] x17/2 |[M:4/4] x8 |[M:3/4] x6 |] %24

